X: 164	% 45
T: Schottische
T: (Name Unknown)
S: Viola Ruth "Pioneer Western Folk Tunes" 1948 p.16 #4
R: shottish
Z: 2019 John Chambers <jc:trillian.mit.edu>
M: 4/4
L: 1/8
K: D
V: 1 name="45"
[|\
D>FA>d f>ed>A | c>BB>^A B4 |\
(3(cec) A2(3(cec) A>f | f>dd>c d4 ||
||\
(3(ABA) F2 (3(ABA) F>d | c>BB>^A B4 |\
(3(cec) A2 (3(cec) A>f | f>dd>c d4 |]
